X: 1
T: MacKinnon's Brook #1
C: trad.
R: strathspey
Z: 2020 John Chambers <jc:trillian.mit.edu>
M: C
L: 1/8
K: Ador
|:\
A2 A>G E2 E>D | E<G E>D C>D E<G |\
A2 A>G c>d e<a | g>e d>B A2 A2 :|
|:\
A2 A>B c>d e<a | g>d e<g d>g B>G |\
A2 A>B c>d e<a | g>e d>B A2 A2 :|
